Obsidian/actions/16s/grid-axonometric.svg

<svg viewBox="0 0 16 16" xmlns="http://www.w3.org/2000/svg"><path d="m3 2v2.5546875l-.8769531.390625-.1230469-.0546875v.109375.9824219.1113281l.1269531-.0566406.8730469.3828125v3.2832031l-.734375.320313-.0625-.0273442-.203125-.0898438v1.09375.232422l.2636719-.115234.7363281.328124v2.554688h1v-2.111328l2 .888672v.683594l-1.203125.535156-.0078125.003906h2.4609375l.75-.333984.75.333984h2.460938l-.007813-.003906-1.203125-.535156v-.683594l2-.888672v2.111328h1v-2.554688l.736328-.328124.263672.115234v-.232422-.859375-.234375l-.203125.0898438-.0625.0273442-.734375-.320313v-3.2832031l.873047-.3828125.126953.0566406v-.1113281-1.0917969l-.123047.0546875-.876953-.390625v-2.5546875h-1v2.1113281l-2-.8886719v-.6835937l1.203125-.5351563.007813-.0039062h-2.460938l-.75.3339844-.75-.3339844h-2.4609375l.0078125.0039062 1.203125.5351563v.6835937l-2 .8886719v-2.1113281zm5 1.4277344 1 .4433594v3.2070312l-1 .4375-1-.4375v-3.2070312zm-2 .8886718v2.3242188l-2-.875v-.5605469zm4 0 2 .8886719v.5605469l-2 .875zm-6 2.5410157 2 .875v.6582031l-2 .875zm8 0v2.4082031l-2-.875v-.6582031zm-4 1.75 1 .4375v3.0839841l-1 .44336-1-.44336v-3.0839841zm-2 .875v2.2011721l-2-.888672v-.4375zm4 0 2 .8750001v.4375l-2 .888672z" fill="#f2f2f2"/></svg>

<svg xmlns="http://www.w3.org/2000/svg" viewBox="0 0 16 16">
  <defs id="defs3051">
    <style type="text/css" id="current-color-scheme">
      .ColorScheme-Text {
        color:#f2f2f2;
      }
      </style>
  </defs>
 <path style="fill:currentColor;fill-opacity:1;stroke:none" 
       d="M 3 2 L 3 4.5546875 L 2.1230469 4.9453125 L 2 4.890625 L 2 5 L 2 5.9824219 L 2 6.09375 L 2.1269531 6.0371094 L 3 6.4199219 L 3 9.703125 L 2.265625 10.023438 L 2.203125 9.9960938 L 2 9.90625 L 2 11 L 2 11.232422 L 2.2636719 11.117188 L 3 11.445312 L 3 14 L 4 14 L 4 11.888672 L 6 12.777344 L 6 13.460938 L 4.796875 13.996094 L 4.7890625 14 L 7.25 14 L 8 13.666016 L 8.75 14 L 11.210938 14 L 11.203125 13.996094 L 10 13.460938 L 10 12.777344 L 12 11.888672 L 12 14 L 13 14 L 13 11.445312 L 13.736328 11.117188 L 14 11.232422 L 14 11 L 14 10.140625 L 14 9.90625 L 13.796875 9.9960938 L 13.734375 10.023438 L 13 9.703125 L 13 6.4199219 L 13.873047 6.0371094 L 14 6.09375 L 14 5.9824219 L 14 4.890625 L 13.876953 4.9453125 L 13 4.5546875 L 13 2 L 12 2 L 12 4.1113281 L 10 3.2226562 L 10 2.5390625 L 11.203125 2.0039062 L 11.210938 2 L 8.75 2 L 8 2.3339844 L 7.25 2 L 4.7890625 2 L 4.796875 2.0039062 L 6 2.5390625 L 6 3.2226562 L 4 4.1113281 L 4 2 L 3 2 z M 8 3.4277344 L 9 3.8710938 L 9 7.078125 L 8 7.515625 L 7 7.078125 L 7 3.8710938 L 8 3.4277344 z M 6 4.3164062 L 6 6.640625 L 4 5.765625 L 4 5.2050781 L 6 4.3164062 z M 10 4.3164062 L 12 5.2050781 L 12 5.765625 L 10 6.640625 L 10 4.3164062 z M 4 6.8574219 L 6 7.7324219 L 6 8.390625 L 4 9.265625 L 4 6.8574219 z M 12 6.8574219 L 12 9.265625 L 10 8.390625 L 10 7.7324219 L 12 6.8574219 z M 8 8.6074219 L 9 9.0449219 L 9 12.128906 L 8 12.572266 L 7 12.128906 L 7 9.0449219 L 8 8.6074219 z M 6 9.4824219 L 6 11.683594 L 4 10.794922 L 4 10.357422 L 6 9.4824219 z M 10 9.4824219 L 12 10.357422 L 12 10.794922 L 10 11.683594 L 10 9.4824219 z "
     class="ColorScheme-Text"
     />
</svg>
